docroot/sites/all/themes/custom/bracknell_theme_base/images/faces/face-neutral.svg

<!-- Generated by IcoMoon.io -->
<svg version="1.1" xmlns="http://www.w3.org/2000/svg" width="32" height="32" viewBox="0 0 32 32">
<title>face-neutral</title>
<path d="M15.974 2.979c7.18 0 13.021 5.841 13.021 13.021s-5.841 13.021-13.021 13.021-13.021-5.841-13.021-13.021 5.841-13.021 13.021-13.021zM15.974 0.375c-8.629 0-15.625 6.996-15.625 15.625s6.996 15.625 15.625 15.625 15.625-6.996 15.625-15.625-6.996-15.625-15.625-15.625zM21.182 22.51h-10.417v-2.604h10.417v2.604zM11.417 10.792c-1.078 0-1.953 0.874-1.953 1.953s0.875 1.953 1.953 1.953 1.953-0.874 1.953-1.953-0.875-1.953-1.953-1.953zM20.531 10.792c-1.078 0-1.953 0.874-1.953 1.953s0.875 1.953 1.953 1.953c1.078 0 1.953-0.874 1.953-1.953s-0.875-1.953-1.953-1.953z"></path>
</svg>

<svg id="Layer_1" data-name="Layer 1" xmlns="http://www.w3.org/2000/svg" viewBox="0 0 31.25 31.25"><defs><style>.cls-1{fill:#fff;}.cls-2{fill:#003b4c;}</style></defs><title>face-neutral-optimised</title><circle class="cls-1" cx="15.65" cy="15.63" r="15"/><path class="cls-2" d="M16,3A13,13,0,1,1,3,16,13,13,0,0,1,16,3Zm0-2.6A15.63,15.63,0,1,0,31.6,16,15.63,15.63,0,0,0,16,.38Zm5.21,22.14H10.76v-2.6H21.18ZM11.42,10.79a2,2,0,1,0,2,2A2,2,0,0,0,11.42,10.79Zm9.11,0a2,2,0,1,0,2,2A2,2,0,0,0,20.53,10.79Z" transform="translate(-0.35 -0.38)"/></svg>
